Papirus/16x16/places/folder-mega.svg

<?xml version="1.0" encoding="UTF-8" standalone="no"?>
<!--Created with Inkscape (http://www.inkscape.org/)-->
<svg id="svg7384" xmlns:rdf="http://www.w3.org/1999/02/22-rdf-syntax-ns#" style="enable-background:new" xmlns="http://www.w3.org/2000/svg" height="16" width="16" version="1.1" xmlns:cc="http://creativecommons.org/ns#" xmlns:dc="http://purl.org/dc/elements/1.1/">
 <metadata id="metadata90">
  <rdf:RDF>
   <cc:Work rdf:about="">
    <dc:format>image/svg+xml</dc:format>
    <dc:type rdf:resource="http://purl.org/dc/dcmitype/StillImage"/>
   </cc:Work>
  </rdf:RDF>
 </metadata>
 <defs id="defs7386">
  <clipPath id="clipPath4186" clipPathUnits="userSpaceOnUse">
   <circle id="path4188" style="color:#000000;enable-background:accumulate" cx="286" cy="26" r="10" fill="url(#linearGradient4190)"/>
  </clipPath>
 </defs>
 <g id="layer2" transform="translate(-424,-428)">
  <circle id="path4240" opacity="0" style="color:#000000;enable-background:accumulate" clip-path="url(#clipPath4186)" r="10" transform="matrix(2 0 0 2 -182.17 393.41)" cy="26" cx="286" stroke-width=".45455"/>
  <circle id="path4242" opacity="0" style="color:#000000;enable-background:accumulate" clip-path="url(#clipPath4186)" r="10" transform="matrix(2 0 0 2 -182.17 393.41)" cy="26" cx="286" stroke-width=".90909"/>
  <path id="path4154" opacity="1" transform="translate(424,428)" d="m8 1a7 7 0 0 0 -7 7 7 7 0 0 0 7 7 7 7 0 0 0 7 -7 7 7 0 0 0 -7 -7zm-4 3h2v0.0059l0.002-0.002 1.998 2.9961 2-3h2v8h-2v-4l-2 2-2-2v4h-2v-8z"/>
 </g>
</svg>

<svg xmlns="http://www.w3.org/2000/svg" viewBox="0 0 16 16">
  <defs>
    <style type="text/css" id="current-color-scheme">
      .ColorScheme-Text {
        color:#000000;
      }
      </style>
  </defs>
  <path 
     style="fill:currentColor;opacity:1"
     class="ColorScheme-Text"
     d="M 8 1 A 7 7 0 0 0 1 8 A 7 7 0 0 0 8 15 A 7 7 0 0 0 15 8 A 7 7 0 0 0 8 1 z M 4 4 L 6 4 L 6 4.0058594 L 6.0019531 4.0039062 L 8 7 L 10 4 L 12 4 L 12 12 L 10 12 L 10 8 L 8 10 L 6 8 L 6 12 L 4 12 L 4 4 z "
      />
</svg>
